app/javascript/images/link.svg

<?xml version="1.0" encoding="UTF-8" standalone="no"?>
<svg width="120px" height="120px" viewBox="0 0 120 120" version="1.1" xmlns="http://www.w3.org/2000/svg" xmlns:xlink="http://www.w3.org/1999/xlink">
    <!-- Generator: Sketch 39.1 (31720) - http://www.bohemiancoding.com/sketch -->
    <title>Artboard</title>
    <desc>Created with Sketch.</desc>
    <defs>
        <path d="M94.2062804,28.6230855 C96.0681556,30.3381913 97.5610106,33.2190659 98.1103477,36.1418746 C98.6303308,38.9304941 98.2403435,41.2913855 97.0032867,42.6290841 L81.0263841,59.8807842 C79.4580477,61.5875032 76.7323294,61.8265278 74.7320715,59.7675621 C73.0295459,58.1908389 70.3835025,58.2872874 68.8109727,59.9981998 C67.2258627,61.696532 67.3348914,64.3425754 69.0332236,65.923492 C73.8221009,70.6662419 82.0034492,71.0771963 87.1865074,65.5796322 L103.15083,48.3153518 C106.258149,44.9732019 107.394564,40.0962628 106.354597,34.5903119 C105.469787,29.9188501 103.066962,25.3857709 99.9051283,22.471349 L92.2689237,15.3970617 C89.1112839,12.4700595 84.4104682,10.4194807 79.684492,9.89530411 C74.1156398,9.28306585 69.3351493,10.788501 66.2446041,14.1516181 L50.2551212,31.3991248 C45.1685115,36.9931374 46.2168647,45.1115845 51.3160546,49.5230547 C53.0269671,51.0955845 55.6646237,50.9949426 57.2413469,49.2840302 C58.8180701,47.5898914 58.7174282,44.943848 57.0107092,43.3671248 C54.8007807,41.5346034 54.8427148,38.7921115 56.419438,37.1021661 L72.3921472,19.8462726 C73.6208171,18.5085739 75.956548,17.9340764 78.770328,18.2443889 C81.7224906,18.5630883 84.7123939,19.8294989 86.5700757,21.5487982 L94.2062804,28.6230855 L94.2062804,28.6230855 Z" id="path-1"></path>
        <filter x="-50%" y="-50%" width="200%" height="200%" filterUnits="objectBoundingBox" id="filter-2">
            <feOffset dx="0" dy="0" in="SourceAlpha" result="shadowOffsetOuter1"></feOffset>
            <feGaussianBlur stdDeviation="10" in="shadowOffsetOuter1" result="shadowBlurOuter1"></feGaussianBlur>
            <feColorMatrix values="0 0 0 0 1   0 0 0 0 1   0 0 0 0 1  0 0 0 0.5 0" type="matrix" in="shadowBlurOuter1"></feColorMatrix>
        </filter>
        <path d="M23.7737196,89.381443 C21.9118444,87.6621438 20.4189894,84.7812692 19.8696523,81.8584605 C19.3496692,79.0740345 19.7396565,76.7089497 20.9767133,75.371251 L36.9536159,58.1195509 C38.5219523,56.4128319 41.2476706,56.1738074 43.2479285,58.232773 C44.9504541,59.8094962 47.5964975,59.7088543 49.1690273,58.0021353 C50.7541373,56.3038032 50.649302,53.6577597 48.9467764,52.0768431 C44.1578991,47.3340933 35.9765508,46.9189454 30.7934926,52.4207029 L14.8291702,69.6849833 C11.7218513,73.0229398 10.5854365,77.9040723 11.6254029,83.4100232 C12.5102129,88.0814851 14.9130385,92.6145643 18.0748717,95.5331795 L25.7110763,102.603273 C28.8687161,105.534469 33.5695318,107.585048 38.295508,108.105031 C43.8643602,108.717269 48.6448507,107.216027 51.7353959,103.85291 L67.7206854,86.6012104 C72.8072951,81.0071977 71.7589419,72.8887506 66.6597519,68.4772804 C64.9488395,66.9047506 62.3111829,67.0053925 60.7344597,68.7204983 C59.1577365,70.4188305 59.2583784,73.0606806 60.9650974,74.6374037 C63.1750259,76.4657317 63.1372852,79.2124171 61.560562,80.9023624 L45.5878528,98.1582559 C44.3591829,99.4959546 42.023452,100.066259 39.2054786,99.7601396 C36.253316,99.4372468 33.2634127,98.179223 31.4057309,96.4515369 L23.7737196,89.381443 L23.7737196,89.381443 Z" id="path-3"></path>
        <filter x="-50%" y="-50%" width="200%" height="200%" filterUnits="objectBoundingBox" id="filter-4">
            <feOffset dx="0" dy="0" in="SourceAlpha" result="shadowOffsetOuter1"></feOffset>
            <feGaussianBlur stdDeviation="10" in="shadowOffsetOuter1" result="shadowBlurOuter1"></feGaussianBlur>
            <feColorMatrix values="0 0 0 0 1   0 0 0 0 1   0 0 0 0 1  0 0 0 0.5 0" type="matrix" in="shadowBlurOuter1"></feColorMatrix>
        </filter>
        <path d="M77.5123042,38.9892019 C75.8181654,37.4166721 73.1637351,37.5215074 71.5870119,39.2198396 L40.2412515,73.0606806 C38.6687218,74.7632061 38.7693637,77.413443 40.4718892,78.9901662 C42.166028,80.562696 44.8204583,80.4662475 46.3971815,78.7637219 L77.7429419,44.9228809 C79.3154717,43.2203553 79.2106363,40.5617316 77.5123042,38.9892019 L77.5123042,38.9892019 Z" id="path-5"></path>
        <filter x="-50%" y="-50%" width="200%" height="200%" filterUnits="objectBoundingBox" id="filter-6">
            <feOffset dx="0" dy="0" in="SourceAlpha" result="shadowOffsetOuter1"></feOffset>
            <feGaussianBlur stdDeviation="10" in="shadowOffsetOuter1" result="shadowBlurOuter1"></feGaussianBlur>
            <feColorMatrix values="0 0 0 0 1   0 0 0 0 1   0 0 0 0 1  0 0 0 0.5 0" type="matrix" in="shadowBlurOuter1"></feColorMatrix>
        </filter>
    </defs>
    <g id="Page-1" stroke="none" stroke-width="1" fill="none" fill-rule="evenodd">
        <g id="Artboard">
            <g id="Shape">
                <use fill="black" fill-opacity="1" filter="url(#filter-2)" xlink:href="#path-1"></use>
                <use fill="#517CA5" fill-rule="evenodd" xlink:href="#path-1"></use>
            </g>
            <g id="Shape">
                <use fill="black" fill-opacity="1" filter="url(#filter-4)" xlink:href="#path-3"></use>
                <use fill="#517CA5" fill-rule="evenodd" xlink:href="#path-3"></use>
            </g>
            <g id="Shape">
                <use fill="black" fill-opacity="1" filter="url(#filter-6)" xlink:href="#path-5"></use>
                <use fill="#517CA5" fill-rule="evenodd" xlink:href="#path-5"></use>
            </g>
        </g>
    </g>
</svg>

<svg width="120" height="120" viewBox="0 0 120 120" xmlns="http://www.w3.org/2000/svg" xmlns:xlink="http://www.w3.org/1999/xlink"><defs><path d="M94.206 28.623c1.862 1.715 3.355 4.596 3.904 7.519.52 2.788.13 5.15-1.107 6.487L81.026 59.881c-1.568 1.707-4.294 1.946-6.294-.113a4.174 4.174 0 0 0-5.921.23 4.183 4.183 0 0 0 .222 5.925c4.79 4.743 12.97 5.154 18.154-.343l15.964-17.265c3.107-3.342 4.244-8.219 3.204-13.725-.885-4.671-3.288-9.204-6.45-12.119l-7.636-7.074C89.11 12.47 84.41 10.42 79.684 9.895c-5.568-.612-10.349.894-13.44 4.257L50.256 31.399c-5.086 5.594-4.038 13.713 1.061 18.124a4.183 4.183 0 0 0 5.925-.239 4.173 4.173 0 0 0-.23-5.917c-2.21-1.832-2.168-4.575-.592-6.265l15.973-17.256c1.229-1.337 3.565-1.912 6.378-1.602 2.952.32 5.942 1.585 7.8 3.305l7.636 7.074z" id="b"/><filter x="-50%" y="-50%" width="200%" height="200%" filterUnits="objectBoundingBox" id="a"><feOffset in="SourceAlpha" result="shadowOffsetOuter1"/><feGaussianBlur stdDeviation="10" in="shadowOffsetOuter1" result="shadowBlurOuter1"/><feColorMatrix values="0 0 0 0 1 0 0 0 0 1 0 0 0 0 1 0 0 0 0.5 0" in="shadowBlurOuter1"/></filter><path d="M23.774 89.381c-1.862-1.719-3.355-4.6-3.904-7.523-.52-2.784-.13-5.15 1.107-6.487L36.954 58.12c1.568-1.707 4.294-1.946 6.294.113a4.178 4.178 0 0 0 5.921-.23 4.18 4.18 0 0 0-.222-5.926c-4.79-4.743-12.97-5.158-18.154.344L14.83 69.685c-3.107 3.338-4.244 8.22-3.204 13.725.885 4.671 3.288 9.205 6.45 12.123l7.636 7.07c3.158 2.931 7.859 4.982 12.585 5.502 5.568.612 10.349-.889 13.44-4.252L67.72 86.6c5.086-5.594 4.038-13.712-1.061-18.124a4.18 4.18 0 0 0-5.926.243 4.173 4.173 0 0 0 .231 5.917c2.21 1.829 2.172 4.575.596 6.265L45.588 98.158c-1.229 1.338-3.565 1.908-6.383 1.602-2.952-.323-5.942-1.58-7.8-3.308l-7.631-7.07z" id="d"/><filter x="-50%" y="-50%" width="200%" height="200%" filterUnits="objectBoundingBox" id="c"><feOffset in="SourceAlpha" result="shadowOffsetOuter1"/><feGaussianBlur stdDeviation="10" in="shadowOffsetOuter1" result="shadowBlurOuter1"/><feColorMatrix values="0 0 0 0 1 0 0 0 0 1 0 0 0 0 1 0 0 0 0.5 0" in="shadowBlurOuter1"/></filter><path d="M77.512 38.99a4.195 4.195 0 0 0-5.925.23L40.241 73.06a4.196 4.196 0 0 0 .23 5.93 4.19 4.19 0 0 0 5.926-.226l31.346-33.841a4.204 4.204 0 0 0-.23-5.934z" id="f"/><filter x="-50%" y="-50%" width="200%" height="200%" filterUnits="objectBoundingBox" id="e"><feOffset in="SourceAlpha" result="shadowOffsetOuter1"/><feGaussianBlur stdDeviation="10" in="shadowOffsetOuter1" result="shadowBlurOuter1"/><feColorMatrix values="0 0 0 0 1 0 0 0 0 1 0 0 0 0 1 0 0 0 0.5 0" in="shadowBlurOuter1"/></filter></defs><g fill="none" fill-rule="evenodd"><use fill="#000" filter="url(#a)" xlink:href="#b"/><use fill="#517CA5" xlink:href="#b"/><use fill="#000" filter="url(#c)" xlink:href="#d"/><use fill="#517CA5" xlink:href="#d"/><use fill="#000" filter="url(#e)" xlink:href="#f"/><use fill="#517CA5" xlink:href="#f"/></g></svg>
